X: 11394
T: The THIRD OF DECEMBER
C: Copyright.
Q: "Slow and with much feeling."
%R: air, waltz
B: W. Hamilton "Universal Tune-Book" Vol. 1 Glasgow 1844 p.139 #4
S: http://imslp.org/wiki/Hamilton's_Universal_Tune-Book_(Various)
Z: 2016 John Chambers <jc:trillian.mit.edu>
N: There's one one repeat symbol, at the very end; not fixed.
M: 3/4
L: 1/8
K: Eb
% - - - - - - - - - - - - - - - - - - - - - - - - -
B2 |\
e3de2 | (f2d2)B2 | c3Bc2 | B4G2 |\
A3Bc2 | (d2e2f2) | g3eg2 | (g2f3)f |\
(b2a2g2) | cf3e2 | e3dc2 | (c2B2)G2 |\
A3Bc2 |
(d2B2)d2 | e2f2d2 | (d2e2) |]\
G2 |\
G3FD2 | (E2G2)A2 | _d2c2d2 | c4c2 |\
f2e2_d2 | (c2F2)G2 | A3cB2 | (A2G2)E2 |\
e3=de2 | (d2c2)B2 | Gg3f2 |
(f2e2)d2 |\
c2F2=A2 | (B2c2d2) | e2f2d2 | (d2e2)z |]\
B |\
(B2He2)zc | (c2Hf2)zd | (e2Hg2)zf | (f2Ha2)zf |\
(g2He2)zc | (c2B2e2) | (G2A2)F2 | (F2E2) :|
% - - - - - - - - - - - - - - - - - - - - - - - - -

%%sep 1 1 500
%%sep 1 1 500

